icons/linear-ele-symbol-loading.svg

<svg xmlns="http://www.w3.org/2000/svg" width="32px" height="32px" viewBox="0 0 32 32" version="1.1">
    <title>linear-ele-symbol-loading</title>
    <g id="linear-ele-symbol-loading" stroke-width="1" fill-rule="evenodd">
        <path d="M16,2 C16.5522847,2 17,2.44771525 17,3 L17,9 C17,9.55228475 16.5522847,10 16,10 C15.4477153,10 15,9.55228475 15,9 L15,3 C15,2.44771525 15.4477153,2 16,2 Z M24.5428932,6.04289322 C24.9334175,5.65236893 25.5665825,5.65236893 25.9571068,6.04289322 C26.3476311,6.43341751 26.3476311,7.06658249 25.9571068,7.45710678 L21.7071068,11.7071068 C21.3165825,12.0976311 20.6834175,12.0976311 20.2928932,11.7071068 C19.9023689,11.3165825 19.9023689,10.6834175 20.2928932,10.2928932 L24.5428932,6.04289322 Z M29,15 C29.5522847,15 30,15.4477153 30,16 C30,16.5522847 29.5522847,17 29,17 L23,17 C22.4477153,17 22,16.5522847 22,16 C22,15.4477153 22.4477153,15 23,15 L29,15 Z M20.2928932,20.2928932 C20.6834175,19.9023689 21.3165825,19.9023689 21.7071068,20.2928932 L25.9571068,24.5428932 C26.3476311,24.9334175 26.3476311,25.5665825 25.9571068,25.9571068 C25.5665825,26.3476311 24.9334175,26.3476311 24.5428932,25.9571068 L20.2928932,21.7071068 C19.9023689,21.3165825 19.9023689,20.6834175 20.2928932,20.2928932 Z M16,22 C16.5522847,22 17,22.4477153 17,23 L17,29 C17,29.5522847 16.5522847,30 16,30 C15.4477153,30 15,29.5522847 15,29 L15,23 C15,22.4477153 15.4477153,22 16,22 Z M10.2928932,20.2928932 C10.6834175,19.9023689 11.3165825,19.9023689 11.7071068,20.2928932 C12.0976311,20.6834175 12.0976311,21.3165825 11.7071068,21.7071068 L7.45710678,25.9571068 C7.06658249,26.3476311 6.43341751,26.3476311 6.04289322,25.9571068 C5.65236893,25.5665825 5.65236893,24.9334175 6.04289322,24.5428932 L10.2928932,20.2928932 Z M9,15 C9.55228475,15 10,15.4477153 10,16 C10,16.5522847 9.55228475,17 9,17 L3,17 C2.44771525,17 2,16.5522847 2,16 C2,15.4477153 2.44771525,15 3,15 L9,15 Z M6.04289322,6.04289322 C6.43341751,5.65236893 7.06658249,5.65236893 7.45710678,6.04289322 L11.7071068,10.2928932 C12.0976311,10.6834175 12.0976311,11.3165825 11.7071068,11.7071068 C11.3165825,12.0976311 10.6834175,12.0976311 10.2928932,11.7071068 L6.04289322,7.45710678 C5.65236893,7.06658249 5.65236893,6.43341751 6.04289322,6.04289322 Z" id="&#24418;&#29366;" fill-rule="nonzero" />
    </g>
</svg>

<svg xmlns="http://www.w3.org/2000/svg" viewBox="0 0 32 32"><path fill="currentColor" d="M16 2a1 1 0 0 1 1 1v6a1 1 0 0 1-2 0V3a1 1 0 0 1 1-1m8.543 4.043a1 1 0 0 1 1.414 1.414l-4.25 4.25a1 1 0 0 1-1.414-1.414zM29 15a1 1 0 0 1 0 2h-6a1 1 0 0 1 0-2zm-8.707 5.293a1 1 0 0 1 1.414 0l4.25 4.25a1 1 0 0 1-1.414 1.414l-4.25-4.25a1 1 0 0 1 0-1.414M16 22a1 1 0 0 1 1 1v6a1 1 0 0 1-2 0v-6a1 1 0 0 1 1-1m-5.707-1.707a1 1 0 0 1 1.414 1.414l-4.25 4.25a1 1 0 1 1-1.414-1.414zM9 15a1 1 0 0 1 0 2H3a1 1 0 0 1 0-2zM6.043 6.043a1 1 0 0 1 1.414 0l4.25 4.25a1 1 0 0 1-1.414 1.414l-4.25-4.25a1 1 0 0 1 0-1.414"/></svg>
